exports/global-child-mortality-timeseries_v3_850x600.svg

<svg xmlns="http://www.w3.org/2000/svg" version="1.1" style="background-color:#fff;-webkit-font-smoothing:antialiased" width="850" height="600" font-family="'Helvetica Neue',Helvetica,Arial,sans-serif" font-size="18" text-rendering="optimizeLegibility"><g class="ChartTab"><g class="HeaderView"><g opacity=".8" transform="matrix(.27 0 0 .27 778 15)"><a xmlns:xlink="http://www.w3.org/1999/xlink" xlink:href="https://ourworldindata.org" target="_blank"><g><path fill="#1B2543" d="M0 0h211.2v130.1H0z"/><path fill="#E63912" d="M0 112.2h211.2v17.9H0z"/><g><path fill="none" d="M1.2 12.3h210.2v99.2H1.2z"/><path fill="#FFF" d="M37.8 32.2c0 12.7-7.7 19.4-17.1 19.4-9.7 0-16.6-7.5-16.6-18.7 0-11.7 7.3-19.3 17.1-19.3 10.1.1 16.6 7.7 16.6 18.6zm-28.6.6c0 7.9 4.3 14.9 11.8 14.9 7.5 0 11.8-6.9 11.8-15.3 0-7.3-3.8-14.9-11.8-14.9-7.9 0-11.8 7.3-11.8 15.3zM62.7 43.8c0 2.7.1 5.1.2 7.2h-4.3l-.3-4.3h-.1c-1.3 2.1-4 4.9-8.8 4.9-4.2 0-9.1-2.3-9.1-11.6V24.6h4.8v14.6c0 5 1.5 8.4 5.9 8.4 3.2 0 5.5-2.2 6.3-4.4.3-.7.4-1.6.4-2.5V24.6h4.8v19.2zM67.3 32.8c0-3.1-.1-5.8-.2-8.2h4.2l.2 5.2h.2c1.2-3.5 4.1-5.8 7.3-5.8.5 0 .9.1 1.4.2v4.5c-.5-.1-1-.2-1.6-.2-3.4 0-5.8 2.6-6.5 6.2-.1.7-.2 1.4-.2 2.2V51h-4.8V32.8zM95.4 51L86 14.2h5l4.4 18.6c1.1 4.6 2.1 9.2 2.7 12.7h.1c.6-3.7 1.8-8 3-12.8l4.9-18.5h5l4.5 18.7c1 4.4 2 8.7 2.6 12.6h.1c.8-4 1.8-8.1 3-12.7l4.9-18.5h4.9L120.6 51h-5L111 31.9c-1.1-4.7-1.9-8.3-2.4-12h-.1c-.7 3.7-1.5 7.3-2.8 12L100.4 51h-5zM154.9 37.6c0 9.8-6.8 14-13.2 14-7.2 0-12.7-5.2-12.7-13.6 0-8.8 5.8-14 13.1-14 7.7 0 12.8 5.5 12.8 13.6zm-21 .3c0 5.8 3.3 10.1 8 10.1 4.6 0 8-4.3 8-10.3 0-4.5-2.2-10.1-7.9-10.1s-8.1 5.2-8.1 10.3zM158.2 32.8c0-3.1-.1-5.8-.2-8.2h4.2l.2 5.2h.2c1.2-3.5 4.1-5.8 7.3-5.8.5 0 .9.1 1.4.2v4.5c-.5-.1-1-.2-1.6-.2-3.4 0-5.8 2.6-6.5 6.2-.1.7-.2 1.4-.2 2.2V51h-4.8V32.8zM173.5 12.3h4.8V51h-4.8V12.3zM206.5 12.3v31.9c0 2.3.1 5 .2 6.8h-4.3l-.2-4.6h-.2c-1.5 2.9-4.7 5.2-9 5.2-6.4 0-11.3-5.4-11.3-13.4-.1-8.8 5.4-14.2 11.9-14.2 4 0 6.8 1.9 8 4h.1V12.3h4.8zm-4.8 23.1c0-.6-.1-1.4-.2-2a7 7 0 00-6.9-5.6c-5 0-7.9 4.4-7.9 10.2 0 5.3 2.6 9.8 7.8 9.8 3.2 0 6.2-2.1 7.1-5.7.2-.7.2-1.3.2-2.1v-4.6zM42.8 64c.1 1.6-1.1 2.9-3.1 2.9-1.7 0-2.9-1.3-2.9-2.9 0-1.7 1.3-3 3-3 1.9 0 3 1.3 3 3zm-5.4 33.8V71.4h4.8v26.4h-4.8zM47.5 78.6c0-2.7-.1-5-.2-7.1h4.3l.3 4.4h.1c1.3-2.5 4.4-5 8.8-5 3.7 0 9.4 2.2 9.4 11.2v15.8h-4.8V82.6c0-4.3-1.6-7.8-6.1-7.8-3.2 0-5.6 2.2-6.5 4.9-.2.6-.3 1.4-.3 2.2v15.9h-4.8V78.6zM84 61.6c2.9-.4 6.3-.8 10.1-.8 6.8 0 11.7 1.6 14.9 4.6 3.3 3 5.2 7.3 5.2 13.2 0 6-1.9 10.9-5.3 14.3-3.4 3.4-9.1 5.3-16.3 5.3-3.4 0-6.2-.2-8.6-.4V61.6zm4.8 32.5c1.2.2 3 .3 4.8.3 10.2 0 15.7-5.7 15.7-15.6.1-8.7-4.9-14.2-14.9-14.2-2.5 0-4.3.2-5.6.5v29zM132.1 97.8l-.4-3.3h-.2a9.79 9.79 0 01-8.1 3.9c-5.4 0-8.1-3.8-8.1-7.6 0-6.4 5.7-9.9 15.9-9.8v-.5c0-2.2-.6-6.1-6-6.1-2.5 0-5 .8-6.9 2l-1.1-3.2c2.2-1.4 5.4-2.3 8.7-2.3 8.1 0 10.1 5.5 10.1 10.8v9.9c0 2.3.1 4.5.4 6.3h-4.3zm-.7-13.4c-5.3-.1-11.2.8-11.2 5.9 0 3.1 2.1 4.6 4.5 4.6 3.4 0 5.6-2.2 6.4-4.4.2-.5.3-1 .3-1.5v-4.6zM146.6 63.9v7.6h6.9v3.7h-6.9v14.2c0 3.3.9 5.1 3.6 5.1 1.3 0 2.2-.2 2.8-.3l.2 3.6c-.9.4-2.4.7-4.3.7-2.2 0-4-.7-5.2-2-1.4-1.4-1.9-3.8-1.9-6.9V75.1h-4.1v-3.7h4.1v-6.3l4.8-1.2zM171.4 97.8l-.4-3.3h-.2a9.79 9.79 0 01-8.1 3.9c-5.4 0-8.1-3.8-8.1-7.6 0-6.4 5.7-9.9 15.9-9.8v-.5c0-2.2-.6-6.1-6-6.1-2.5 0-5 .8-6.9 2l-1.1-3.2c2.2-1.4 5.4-2.3 8.7-2.3 8.1 0 10.1 5.5 10.1 10.8v9.9c0 2.3.1 4.5.4 6.3h-4.3zm-.7-13.4c-5.3-.1-11.2.8-11.2 5.9 0 3.1 2.1 4.6 4.5 4.6 3.4 0 5.6-2.2 6.4-4.4.2-.5.3-1 .3-1.5v-4.6z"/></g></g></a></g><a href="https://ourworldindata.org/grapher/global-child-mortality-timeseries" target="_blank"><text font-size="25.2" x="15" y="35.2" fill="#555"><tspan x="15" y="35.16">Global child mortality</tspan></text></a><text font-size="14.4" x="15" y="53.7" fill="#666"><tspan x="15" y="53.72">Share of the world population dying and surviving the first 5 years of life.</tspan></text></g><g class="StackedArea"><defs><clipPath id="a"><path d="M61.63 0h820v959.8h-820z"/></clipPath></defs><g class="AxisBoxView"><g class="HorizontalAxis" fill="#666" text-anchor="middle" font-size="16.2"><text x="61.6" y="556.5">1800</text><text x="207.3" y="556.5">1850</text><text x="352.9" y="556.5">1900</text><text x="498.5" y="556.5">1950</text><text x="644.1" y="556.5">2000</text><text x="687.8" y="556.5">2015</text></g><g class="VerticalAxis" fill="#666" dominant-baseline="middle" text-anchor="end" font-size="16.2"><text x="56.63" y="535.3">0%</text><text x="56.63" y="443.6">20%</text><text x="56.63" y="351.8">40%</text><text x="56.63" y="260.1">60%</text><text x="56.63" y="168.3">80%</text><text x="56.63" y="76.6">100%</text></g><g class="AxisGridLines"><path stroke="#ccc" d="M61.63 535.3h626.19"/><path stroke="#ddd" stroke-dasharray="3,2" d="M61.63 443.6h626.19M61.63 351.8h626.19M61.63 260.1h626.19M61.63 168.3h626.19M61.63 76.6h626.19"/></g></g><g clip-path="url(#a)"><g class="HeightedLegend clickable"><g class="legendMark"><text font-size="13.5" x="692.8" y="292.9" fill="#2a939b"><tspan x="692.82" y="292.95">Share surviving</tspan><tspan x="692.82" y="307.8">first 5 years of life</tspan></text></g><g class="legendMark"><text font-size="13.5" x="692.8" y="522.3" fill="#e6332e"><tspan x="692.82" y="522.35">Share dying in first</tspan><tspan x="692.82" y="537.2">5 years</tspan></text></g></g><g class="Areas"><path class="World_1-area" d="M61.6 336.7l58.3 2.7 58.2 10.6 58.3-4.6 58.2 15.6 58.3 8.3 58.2 18.8 58.3 37.6 58.2 24.7 2.9 2.2 3 1.5 2.9 1.3 2.9-.5 2.9 1.1 2.9.8 2.9 1 2.9 2.4 2.9 6.4 3 2.2 2.9 1.6 2.9 1.5 2.9 1.4 2.9 1.5 2.9 1.1 2.9 1.3 2.9 1.3 3 1.1 2.9 1.1 2.9 1.2 2.9 1.4 2.9 1.4 2.9 1.4 2.9 1.4 2.9 1.4 3 1.2 2.9 1.1 2.9 1 2.9.9 2.9.6 2.9.7 2.9.4 2.9.5 3 .3 2.9.6 2.9.6 2.9.7 2.9.8 2.9 1.1 2.9 1.1 2.9 1.1 3 1.3 2.9 1.3 2.9 1.1 2.9 1.3 2.9 1.1 2.9 1.1 2.9.9 2.9 1.1 3 .8 2.9 1 2.9 1 2.9.8 2.9.8 2.9.6.02 19.5H61.63" fill="#e6332e" fill-opacity=".7"/><path class="World_0-area" d="M61.6 76.6H687.8v439.2l-2.9-.6-2.9-.8-2.9-.8-2.9-1-2.9-1-3-.8-2.9-1.1-2.9-.9-2.9-1.1-2.9-1.1-2.9-1.3-2.9-1.1-2.9-1.3-3-1.3-2.9-1.1-2.9-1.1-2.9-1.1-2.9-.8-2.9-.7-2.9-.6-2.9-.6-3-.3-2.9-.5-2.9-.4-2.9-.7-2.9-.6-2.9-.9-2.9-1-2.9-1.1-3-1.2-2.9-1.4-2.9-1.4-2.9-1.4-2.9-1.4-2.9-1.4-2.9-1.2-2.9-1.1-3-1.1-2.9-1.3-2.9-1.3-2.9-1.1-2.9-1.5-2.9-1.4-2.9-1.5-2.9-1.6-3-2.2-2.9-6.4-2.9-2.4-2.9-1-2.9-.8-2.9-1.1-2.9.5-2.9-1.3-3-1.5-2.9-2.2-58.2-24.7-58.3-37.6-58.2-18.8-58.3-8.3-58.2-15.6-58.3 4.6-58.2-10.6-58.3-2.7" fill="#2a939b" fill-opacity=".7"/><path class="World_1-border" stroke-linecap="round" d="M61.6 336.7l58.3 2.7 58.2 10.6 58.3-4.6 58.2 15.6 58.3 8.3 58.2 18.8 58.3 37.6 58.2 24.7 2.9 2.2 3 1.5 2.9 1.3 2.9-.5 2.9 1.1 2.9.8 2.9 1 2.9 2.4 2.9 6.4 3 2.2 2.9 1.6 2.9 1.5 2.9 1.4 2.9 1.5 2.9 1.1 2.9 1.3 2.9 1.3 3 1.1 2.9 1.1 2.9 1.2 2.9 1.4 2.9 1.4 2.9 1.4 2.9 1.4 2.9 1.4 3 1.2 2.9 1.1 2.9 1 2.9.9 2.9.6 2.9.7 2.9.4 2.9.5 3 .3 2.9.6 2.9.6 2.9.7 2.9.8 2.9 1.1 2.9 1.1 2.9 1.1 3 1.3 2.9 1.3 2.9 1.1 2.9 1.3 2.9 1.1 2.9 1.1 2.9.9 2.9 1.1 3 .8 2.9 1 2.9 1 2.9.8 2.9.8 2.9.6" stroke="#C02B26" stroke-opacity=".7" stroke-width=".5" fill="none"/><path class="World_0-border" stroke-linecap="round" d="M61.6 76.6H687.8" stroke="#237B82" stroke-opacity=".7" stroke-width=".5" fill="none"/></g></g></g><g class="SourcesFooter" fill="#777"><g class="clickable" fill="#777"><text font-size="12.6" x="15" y="581.6"><tspan x="15" y="581.58">Source: Gapminder and the World Bank</tspan></text></g><text font-size="12.6" x="383.2" y="581.6"><tspan x="383.16" y="581.58"><a target="_blank" href="https://ourworldindata.org/a-history-of-global-living-conditions-in-5-charts/" fill="#777">OurWorldInData.org/a-history-of-global-living-conditions-in-5-charts/</a> • <a class="cclogo" href="http://creativecommons.org/licenses/by-sa/4.0/deed.en_US" target="_blank" fill="#777">CC BY-SA</a></tspan></text></g></g></svg>

<svg xmlns="http://www.w3.org/2000/svg" version="1.1" style="font-family:&#x27;Helvetica Neue&#x27;, Helvetica, Arial, sans-serif;font-size:18px;background-color:white;text-rendering:optimizeLegibility;-webkit-font-smoothing:antialiased" width="850" height="600"><g class="ChartTab"><g class="HeaderView"><g opacity="0.8" transform="translate(778, 15) scale(0.27)"><a xmlns:xlink="http://www.w3.org/1999/xlink" xlink:href="https://ourworldindata.org" target="_blank"><g><rect x="0" y="0" fill="#1B2543" width="211.2" height="130.1"/><rect x="0" y="112.2" fill="#E63912" width="211.2" height="17.9"/><g><rect x="1.2" y="12.3" fill="none" width="210.2" height="99.2"/><path fill="#FFFFFF" d="M37.8,32.2c0,12.7-7.7,19.4-17.1,19.4c-9.7,0-16.6-7.5-16.6-18.7c0-11.7,7.3-19.3,17.1-19.3 C31.3,13.7,37.8,21.3,37.8,32.2z M9.2,32.8c0,7.9,4.3,14.9,11.8,14.9c7.5,0,11.8-6.9,11.8-15.3c0-7.3-3.8-14.9-11.8-14.9 C13.1,17.5,9.2,24.8,9.2,32.8z"/><path fill="#FFFFFF" d="M62.7,43.8c0,2.7,0.1,5.1,0.2,7.2h-4.3l-0.3-4.3h-0.1c-1.3,2.1-4,4.9-8.8,4.9c-4.2,0-9.1-2.3-9.1-11.6 V24.6h4.8v14.6c0,5,1.5,8.4,5.9,8.4c3.2,0,5.5-2.2,6.3-4.4c0.3-0.7,0.4-1.6,0.4-2.5V24.6h4.8V43.8z"/><path fill="#FFFFFF" d="M67.3,32.8c0-3.1-0.1-5.8-0.2-8.2h4.2l0.2,5.2h0.2c1.2-3.5,4.1-5.8,7.3-5.8c0.5,0,0.9,0.1,1.4,0.2v4.5 c-0.5-0.1-1-0.2-1.6-0.2c-3.4,0-5.8,2.6-6.5,6.2c-0.1,0.7-0.2,1.4-0.2,2.2V51h-4.8V32.8z"/><path fill="#FFFFFF" d="M95.4,51l-9.4-36.8h5l4.4,18.6c1.1,4.6,2.1,9.2,2.7,12.7h0.1c0.6-3.7,1.8-8,3-12.8l4.9-18.5h5l4.5,18.7 c1,4.4,2,8.7,2.6,12.6h0.1c0.8-4,1.8-8.1,3-12.7l4.9-18.5h4.9L120.6,51h-5L111,31.9c-1.1-4.7-1.9-8.3-2.4-12h-0.1 c-0.7,3.7-1.5,7.3-2.8,12L100.4,51H95.4z"/><path fill="#FFFFFF" d="M154.9,37.6c0,9.8-6.8,14-13.2,14c-7.2,0-12.7-5.2-12.7-13.6c0-8.8,5.8-14,13.1-14 C149.8,24,154.9,29.5,154.9,37.6z M133.9,37.9c0,5.8,3.3,10.1,8,10.1c4.6,0,8-4.3,8-10.3c0-4.5-2.2-10.1-7.9-10.1 C136.3,27.6,133.9,32.8,133.9,37.9z"/><path fill="#FFFFFF" d="M158.2,32.8c0-3.1-0.1-5.8-0.2-8.2h4.2l0.2,5.2h0.2c1.2-3.5,4.1-5.8,7.3-5.8c0.5,0,0.9,0.1,1.4,0.2v4.5 c-0.5-0.1-1-0.2-1.6-0.2c-3.4,0-5.8,2.6-6.5,6.2c-0.1,0.7-0.2,1.4-0.2,2.2V51h-4.8V32.8z"/><path fill="#FFFFFF" d="M173.5,12.3h4.8V51h-4.8V12.3z"/><path fill="#FFFFFF" d="M206.5,12.3v31.9c0,2.3,0.1,5,0.2,6.8h-4.3l-0.2-4.6H202c-1.5,2.9-4.7,5.2-9,5.2 c-6.4,0-11.3-5.4-11.3-13.4c-0.1-8.8,5.4-14.2,11.9-14.2c4,0,6.8,1.9,8,4h0.1V12.3H206.5z M201.7,35.4c0-0.6-0.1-1.4-0.2-2 c-0.7-3.1-3.3-5.6-6.9-5.6c-5,0-7.9,4.4-7.9,10.2c0,5.3,2.6,9.8,7.8,9.8c3.2,0,6.2-2.1,7.1-5.7c0.2-0.7,0.2-1.3,0.2-2.1V35.4z"/><path fill="#FFFFFF" d="M42.8,64c0.1,1.6-1.1,2.9-3.1,2.9c-1.7,0-2.9-1.3-2.9-2.9c0-1.7,1.3-3,3-3C41.7,61,42.8,62.3,42.8,64z M37.4,97.8V71.4h4.8v26.4H37.4z"/><path fill="#FFFFFF" d="M47.5,78.6c0-2.7-0.1-5-0.2-7.1h4.3l0.3,4.4h0.1c1.3-2.5,4.4-5,8.8-5c3.7,0,9.4,2.2,9.4,11.2v15.8h-4.8 V82.6c0-4.3-1.6-7.8-6.1-7.8c-3.2,0-5.6,2.2-6.5,4.9c-0.2,0.6-0.3,1.4-0.3,2.2v15.9h-4.8V78.6z"/><path fill="#FFFFFF" d="M84,61.6c2.9-0.4,6.3-0.8,10.1-0.8c6.8,0,11.7,1.6,14.9,4.6c3.3,3,5.2,7.3,5.2,13.2c0,6-1.9,10.9-5.3,14.3 c-3.4,3.4-9.1,5.3-16.3,5.3c-3.4,0-6.2-0.2-8.6-0.4V61.6z M88.8,94.1c1.2,0.2,3,0.3,4.8,0.3c10.2,0,15.7-5.7,15.7-15.6 c0.1-8.7-4.9-14.2-14.9-14.2c-2.5,0-4.3,0.2-5.6,0.5V94.1z"/><path fill="#FFFFFF" d="M132.1,97.8l-0.4-3.3h-0.2c-1.5,2.1-4.3,3.9-8.1,3.9c-5.4,0-8.1-3.8-8.1-7.6c0-6.4,5.7-9.9,15.9-9.8v-0.5 c0-2.2-0.6-6.1-6-6.1c-2.5,0-5,0.8-6.9,2l-1.1-3.2c2.2-1.4,5.4-2.3,8.7-2.3c8.1,0,10.1,5.5,10.1,10.8v9.9c0,2.3,0.1,4.5,0.4,6.3 H132.1z M131.4,84.4c-5.3-0.1-11.2,0.8-11.2,5.9c0,3.1,2.1,4.6,4.5,4.6c3.4,0,5.6-2.2,6.4-4.4c0.2-0.5,0.3-1,0.3-1.5V84.4z"/><path fill="#FFFFFF" d="M146.6,63.9v7.6h6.9v3.7h-6.9v14.2c0,3.3,0.9,5.1,3.6,5.1c1.3,0,2.2-0.2,2.8-0.3l0.2,3.6 c-0.9,0.4-2.4,0.7-4.3,0.7c-2.2,0-4-0.7-5.2-2c-1.4-1.4-1.9-3.8-1.9-6.9V75.1h-4.1v-3.7h4.1v-6.3L146.6,63.9z"/><path fill="#FFFFFF" d="M171.4,97.8l-0.4-3.3h-0.2c-1.5,2.1-4.3,3.9-8.1,3.9c-5.4,0-8.1-3.8-8.1-7.6c0-6.4,5.7-9.9,15.9-9.8v-0.5 c0-2.2-0.6-6.1-6-6.1c-2.5,0-5,0.8-6.9,2l-1.1-3.2c2.2-1.4,5.4-2.3,8.7-2.3c8.1,0,10.1,5.5,10.1,10.8v9.9c0,2.3,0.1,4.5,0.4,6.3 H171.4z M170.7,84.4c-5.3-0.1-11.2,0.8-11.2,5.9c0,3.1,2.1,4.6,4.5,4.6c3.4,0,5.6-2.2,6.4-4.4c0.2-0.5,0.3-1,0.3-1.5V84.4z"/></g></g></a></g><a href="https://ourworldindata.org/grapher/global-child-mortality-timeseries" target="_blank"><text font-size="25.20" x="15.0" y="35.2" fill="#555"><tspan x="15" y="35.160000000000004">Global child mortality</tspan></text></a><text font-size="14.40" x="15.0" y="53.7" fill="#666"><tspan x="15" y="53.72">Share of the world population dying and surviving the first 5 years of life.</tspan></text></g><g class="StackedArea"><defs><clipPath id="boundsClip-8"><rect x="61.634" y="0" width="820" height="959.8"></rect></clipPath></defs><g class="AxisBoxView"><g class="HorizontalAxis"><text x="61.6" y="556.5" fill="#666" text-anchor="middle" font-size="16.2">1800</text><text x="207.3" y="556.5" fill="#666" text-anchor="middle" font-size="16.2">1850</text><text x="352.9" y="556.5" fill="#666" text-anchor="middle" font-size="16.2">1900</text><text x="498.5" y="556.5" fill="#666" text-anchor="middle" font-size="16.2">1950</text><text x="644.1" y="556.5" fill="#666" text-anchor="middle" font-size="16.2">2000</text><text x="687.8" y="556.5" fill="#666" text-anchor="middle" font-size="16.2">2015</text></g><g class="VerticalAxis"><text x="56.63" y="535.3" fill="#666" dominant-baseline="middle" text-anchor="end" font-size="16.2">0%</text><text x="56.63" y="443.6" fill="#666" dominant-baseline="middle" text-anchor="end" font-size="16.2">20%</text><text x="56.63" y="351.8" fill="#666" dominant-baseline="middle" text-anchor="end" font-size="16.2">40%</text><text x="56.63" y="260.1" fill="#666" dominant-baseline="middle" text-anchor="end" font-size="16.2">60%</text><text x="56.63" y="168.3" fill="#666" dominant-baseline="middle" text-anchor="end" font-size="16.2">80%</text><text x="56.63" y="76.6" fill="#666" dominant-baseline="middle" text-anchor="end" font-size="16.2">100%</text></g><g class="AxisGridLines"><line x1="61.63" y1="535.3" x2="687.82" y2="535.3" stroke="#ccc"></line><line x1="61.63" y1="443.6" x2="687.82" y2="443.6" stroke="#ddd" stroke-dasharray="3,2"></line><line x1="61.63" y1="351.8" x2="687.82" y2="351.8" stroke="#ddd" stroke-dasharray="3,2"></line><line x1="61.63" y1="260.1" x2="687.82" y2="260.1" stroke="#ddd" stroke-dasharray="3,2"></line><line x1="61.63" y1="168.3" x2="687.82" y2="168.3" stroke="#ddd" stroke-dasharray="3,2"></line><line x1="61.63" y1="76.6" x2="687.82" y2="76.6" stroke="#ddd" stroke-dasharray="3,2"></line></g></g><g clip-path="url(#boundsClip-8)"><g class="HeightedLegend clickable"><g class="legendMark"><rect x="687.815" y="282.15" width="141.11" height="28.1" fill="#fff" opacity="0"></rect><text font-size="13.50" x="692.8" y="292.9" fill="#2a939b"><tspan x="692.815" y="292.95">Share surviving</tspan><tspan x="692.815" y="307.8">first 5 years of life</tspan></text></g><g class="legendMark"><rect x="687.815" y="511.55" width="147.185" height="28.1" fill="#fff" opacity="0"></rect><text font-size="13.50" x="692.8" y="522.3" fill="#e6332e"><tspan x="692.815" y="522.3499999999999">Share dying in first</tspan><tspan x="692.815" y="537.1999999999999">5 years</tspan></text></g></g><g class="Areas"><rect x="61.634" y="76.6" width="626.181" height="458.69999999999993" opacity="0" fill="rgba(255,255,255,0)"></rect><path class="World_1-area" stroke-linecap="round" d="M61.6 336.7L119.9 339.4L178.1 350L236.4 345.4L294.6 361L352.9 369.3L411.1 388.1L469.4 425.7L527.6 450.4L530.5 452.6L533.5 454.1L536.4 455.4L539.3 454.9L542.2 456L545.1 456.8L548 457.8L550.9 460.2L553.8 466.6L556.8 468.8L559.7 470.4L562.6 471.9L565.5 473.3L568.4 474.8L571.3 475.9L574.2 477.2L577.1 478.5L580.1 479.6L583 480.7L585.9 481.9L588.8 483.3L591.7 484.7L594.6 486.1L597.5 487.5L600.4 488.9L603.4 490.1L606.3 491.2L609.2 492.2L612.1 493.1L615 493.7L617.9 494.4L620.8 494.8L623.7 495.3L626.7 495.6L629.6 496.2L632.5 496.8L635.4 497.5L638.3 498.3L641.2 499.4L644.1 500.5L647 501.6L650 502.9L652.9 504.2L655.8 505.3L658.7 506.6L661.6 507.7L664.5 508.8L667.4 509.7L670.3 510.8L673.3 511.6L676.2 512.6L679.1 513.6L682 514.4L684.9 515.2L687.8 515.8L687.815 535.3L61.634 535.3" fill="#e6332e" fill-opacity="0.7"></path><path class="World_0-area" stroke-linecap="round" d="M61.6 76.6L119.9 76.6L178.1 76.6L236.4 76.6L294.6 76.6L352.9 76.6L411.1 76.6L469.4 76.6L527.6 76.6L530.5 76.6L533.5 76.6L536.4 76.6L539.3 76.6L542.2 76.6L545.1 76.6L548 76.6L550.9 76.6L553.8 76.6L556.8 76.6L559.7 76.6L562.6 76.6L565.5 76.6L568.4 76.6L571.3 76.6L574.2 76.6L577.1 76.6L580.1 76.6L583 76.6L585.9 76.6L588.8 76.6L591.7 76.6L594.6 76.6L597.5 76.6L600.4 76.6L603.4 76.6L606.3 76.6L609.2 76.6L612.1 76.6L615 76.6L617.9 76.6L620.8 76.6L623.7 76.6L626.7 76.6L629.6 76.6L632.5 76.6L635.4 76.6L638.3 76.6L641.2 76.6L644.1 76.6L647 76.6L650 76.6L652.9 76.6L655.8 76.6L658.7 76.6L661.6 76.6L664.5 76.6L667.4 76.6L670.3 76.6L673.3 76.6L676.2 76.6L679.1 76.6L682 76.6L684.9 76.6L687.8 76.6L687.8 515.8L684.9 515.2L682 514.4L679.1 513.6L676.2 512.6L673.3 511.6L670.3 510.8L667.4 509.7L664.5 508.8L661.6 507.7L658.7 506.6L655.8 505.3L652.9 504.2L650 502.9L647 501.6L644.1 500.5L641.2 499.4L638.3 498.3L635.4 497.5L632.5 496.8L629.6 496.2L626.7 495.6L623.7 495.3L620.8 494.8L617.9 494.4L615 493.7L612.1 493.1L609.2 492.2L606.3 491.2L603.4 490.1L600.4 488.9L597.5 487.5L594.6 486.1L591.7 484.7L588.8 483.3L585.9 481.9L583 480.7L580.1 479.6L577.1 478.5L574.2 477.2L571.3 475.9L568.4 474.8L565.5 473.3L562.6 471.9L559.7 470.4L556.8 468.8L553.8 466.6L550.9 460.2L548 457.8L545.1 456.8L542.2 456L539.3 454.9L536.4 455.4L533.5 454.1L530.5 452.6L527.6 450.4L469.4 425.7L411.1 388.1L352.9 369.3L294.6 361L236.4 345.4L178.1 350L119.9 339.4L61.6 336.7" fill="#2a939b" fill-opacity="0.7"></path><path class="World_1-border" stroke-linecap="round" d="M61.6 336.7L119.9 339.4L178.1 350L236.4 345.4L294.6 361L352.9 369.3L411.1 388.1L469.4 425.7L527.6 450.4L530.5 452.6L533.5 454.1L536.4 455.4L539.3 454.9L542.2 456L545.1 456.8L548 457.8L550.9 460.2L553.8 466.6L556.8 468.8L559.7 470.4L562.6 471.9L565.5 473.3L568.4 474.8L571.3 475.9L574.2 477.2L577.1 478.5L580.1 479.6L583 480.7L585.9 481.9L588.8 483.3L591.7 484.7L594.6 486.1L597.5 487.5L600.4 488.9L603.4 490.1L606.3 491.2L609.2 492.2L612.1 493.1L615 493.7L617.9 494.4L620.8 494.8L623.7 495.3L626.7 495.6L629.6 496.2L632.5 496.8L635.4 497.5L638.3 498.3L641.2 499.4L644.1 500.5L647 501.6L650 502.9L652.9 504.2L655.8 505.3L658.7 506.6L661.6 507.7L664.5 508.8L667.4 509.7L670.3 510.8L673.3 511.6L676.2 512.6L679.1 513.6L682 514.4L684.9 515.2L687.8 515.8" stroke="rgb(192, 43, 38)" stroke-opacity="0.7" stroke-width="0.5" fill="none"></path><path class="World_0-border" stroke-linecap="round" d="M61.6 76.6L119.9 76.6L178.1 76.6L236.4 76.6L294.6 76.6L352.9 76.6L411.1 76.6L469.4 76.6L527.6 76.6L530.5 76.6L533.5 76.6L536.4 76.6L539.3 76.6L542.2 76.6L545.1 76.6L548 76.6L550.9 76.6L553.8 76.6L556.8 76.6L559.7 76.6L562.6 76.6L565.5 76.6L568.4 76.6L571.3 76.6L574.2 76.6L577.1 76.6L580.1 76.6L583 76.6L585.9 76.6L588.8 76.6L591.7 76.6L594.6 76.6L597.5 76.6L600.4 76.6L603.4 76.6L606.3 76.6L609.2 76.6L612.1 76.6L615 76.6L617.9 76.6L620.8 76.6L623.7 76.6L626.7 76.6L629.6 76.6L632.5 76.6L635.4 76.6L638.3 76.6L641.2 76.6L644.1 76.6L647 76.6L650 76.6L652.9 76.6L655.8 76.6L658.7 76.6L661.6 76.6L664.5 76.6L667.4 76.6L670.3 76.6L673.3 76.6L676.2 76.6L679.1 76.6L682 76.6L684.9 76.6L687.8 76.6" stroke="rgb(35, 123, 130)" stroke-opacity="0.7" stroke-width="0.5" fill="none"></path></g></g></g><g class="SourcesFooter" style="fill:#777"><g class="clickable" style="fill:#777"><text font-size="12.60" x="15.0" y="581.6"><tspan x="15" y="581.58">Source: Gapminder and the World Bank</tspan></text></g><text font-size="12.60" x="383.2" y="581.6"><tspan x="383.164" y="581.58"><a target='_blank' style='fill: #777;' href='https://ourworldindata.org/a-history-of-global-living-conditions-in-5-charts/'>OurWorldInData.org/a-history-of-global-living-conditions-in-5-charts/</a> • <a style="fill: #777;" class="cclogo" href="http://creativecommons.org/licenses/by-sa/4.0/deed.en_US" target="_blank">CC BY-SA</a></tspan></text></g></g></svg>
